X:1
T:Fugue in F Major
T:Fugue in F Major
T:Christian Petzold
C:Christian Petzold
%%score { ( 1 3 5 ) | ( 2 4 6 ) }
L:1/8
Q:1/4=87
M:4/4
K:F
V:1 treble nm="Organ" snm="Org."
V:3 treble 
V:5 treble 
V:2 bass 
V:4 bass 
V:6 bass 
V:1
 z ccc A/d/c/d/ B/c/A/B/ | G/c/B/c/ A/B/G/A/ F/F/G/A/ B/c/B/A/ | %2
 G/G/A/B/ c/d/c/B/ A/G/F/G/ A/B/A/B/ | c2 d2 B2 c2 | c3 A =B3 B | c3 B Ac/B/ A/c/F/A/ | G4 A2 dc | %7
 B2 c2 A2 F2 | B2 G2 F2 cd | ee d2- dd c2 | c2 z/ c/d/e/ f2 z/ d/e/f/ | g2 z/ e/f/g/ a2 z/ f/g/a/ | %12
 b2 z/ g/a/b/ c'2 f/f/g/a/ | b/B/c/d/ e/e/f/g/ a/A/B/c/ d/d/e/f/ | z ccc A/d/c/d/ B/c/A/B/ | %15
 G/c/B/c/ A/B/G/A/ F/F/G/A/ B/c/B/A/ | G/G/A/B/ c/d/c/B/ A/G/F/G/ A/B/A/B/ | c2 d2 B2 c2 | A4 =B4 | %19
 c4 d4 | e/d/e/c/ f2- f/f/e/d/ e2 | [cf-]2 [df]2 [ce-]2 [ce-]2 | e2 [Bd-]2 [Bd]2 [Gc]2 | c4 c3 c | %24
 B/A/G/A/ B/c/B/c/ d3 d | c/B/A/B/ c/d/c/d/ eeee | z fff e/a/g/a/ f/g/e/f/ | %27
 d/g/f/g/ e/f/d/e/ c/c/d/e/ f/g/f/e/ | d/d/e/f/ g/a/g/f/ e/d/c/d/ e/f/d/e/ | f4 e4- | e2 d2 B2 G2 | %31
 C/F/E/F/ D/G/F/G/ E/A/G/A/ F/B/A/B/ | E/A/G/A/ D/G/F/G/ C/F/E/F/ B,/E/D/E/ | %33
 z ccc A/d/c/d/ B/c/A/B/ | G/c/B/c/ A/B/G/A/ F/F/G/A/ B/c/B/A/ | %35
 G/G/A/B/ c/d/c/B/ A/G/F/G/ A/B/A/B/ | z e d2 dd c2 | c3 c fc d2 | z ggg e/a/g/a/ f/g/e/f/ | %39
 d/g/f/g/ e/f/d/e/ c/c/d/e/ f/g/f/e/ | d/d/e/f/ g/a/g/f/ e2 [Ac]2 | d2 c4 A2 | %42
 d/e/c/d/ B/c/A/B/ g/a/f/g/ e/f/d/e/ | c/d/B/c/ A/B/G/A/ GA G2 | [F-A]2 [DFG]2 [C-E-G]2 [C-E-F]2 | %45
 [CEF]2 [B,DF]2 [DGB]2 [CEG]2 | z FFF E/A/G/A/ F/G/E/F/ | D/G/F/G/ E/F/D/E/ C/C/D/E/ F/G/F/E/ | %48
 D/D/E/F/ G/A/G/F/ E4 | z/ C/D/E/ F/G/F/E/ D/D/E/F/ G/A/G/F/ | c4 d4 | e4 f4 | e4 d4 | c4 z cc z | %54
 A/d/c/d/ B/c/A/B/ G/c/B/c/ A/B/G/A/ | F/F/G/A/ B/c/B/A/ G/G/A/B/ c/d/c/B/ | %56
 A/c/d/e/ f/g/f/e/ d/e/d/c/ B/c/B/A/ | g/a/g/f/ e/f/e/d/ c/d/c/B/ A/B/A/G/ | %58
 F/G/F/G/ A/=B/c/d/ [Gce]2 !fermata!z2 | !turn!c3 g/G/ e2- e/e/d/c/ | [FAcf]4 !turn!c3 f/F/ | %61
 d2- d/d/c/B/ z4 | !turn!B3 _e/_E/ =B2- B/B/A/G/ | [CEGc]4 !turn!G3 c/C/ | A2- A/A/G/F/ z4 | %65
 !turn!F3 B/B,/ [G=B]4 | [Gc-]4 [Cc-]4 | [_Dc]2 [=DB]2 [GB]2 [F_A]2 | F4 E4 | [CF]8 |] %70
V:2
 z8 | z8 | z8 | z8 | z8 | z8 | z CCC A,/D/C/D/ B,/C/A,/B,/ | %7
 G,/C/B,/C/ A,/B,/G,/A,/ F,/F,/G,/A,/ B,/C/B,/A,/ | %8
 G,/G,/A,/B,/ C/D/C/B,/ A,/G,/F,/G,/ A,/B,/A,/B,/ | C2 x2 x4 | %10
 C,/C,/D,/E,/ F,/G,/F,/E,/ D,/D,/E,/F,/ G,/A,/G,/F,/ | E,/E,/F,/G,/ A,2 z/ F,/G,/A,/ B,2 | %12
 z/ G,/A,/B,/ C2 z/ A,/B,/C/ D/D/E/F/ | z/ G,/A,/B,/ C/C/D/E/ z/ F,/G,/A,/ B,F, | G,4 F,2 G,F, | %15
 E,2 F,E, z D, G,2 | z G,A,[E,G,] F,2 F,G, | A,2 D,2 G,2 C,2 | F,2 D,2 G,2 E,2 | A,2 F,2 B,2 G,2 | %20
 C2 z2 z C,C,C, | A,,/D,/C,/D,/ B,,/C,/A,,/B,,/ G,,/C,/B,,/C,/ A,,/B,,/G,,/A,,/ | %22
 F,,/F,,/G,,/A,,/ B,,/C,/B,,/A,,/ G,,/G,,/A,,/B,,/ C,/D,/C,/B,,/ | %23
 A,,/G,,/F,,/G,,/ A,,/B,,/A,,/B,,/ C,4 | G,3 G, F,/E,/D,/E,/ F,/G,/F,/G,/ | %25
 A,/G,/F,/G,/ A,/B,/A,/B,/ C2 z2 | z8 | z8 | z4 z CCC | %29
 A,/D/C/D/ B,/C/A,/B,/ G,/C/B,/C/ A,/B,/G,/A,/ | F,/F,/G,/A,/ B,/C/B,/A,/ G,/G,/A,/B,/ C/D/C/B,/ | %31
 A,/F,/G,/A,/ B,/G,/A,/B,/ C/A,/B,/C/ A,/D/C/D/ | %32
 G,/C/B,/C/ F,/B,/A,/B,/ E,/A,/G,/A,/ D,/G,/F,/G,/ | A,/A,/G,/F,/ F,E, F,/D,/E,/F,/ G,F, | %34
 E,/C,/D,/E,/ F,E, z/ D,/E,/F,/ G,F, | z/ E,/F,/G,/ A,/C,/D,/E,/ F,2 z2 | z8 | z8 | %38
 ED/C/- C=B, C2 z A, | B,2 z G, A,2 z F, | B,2 z G, C2 z2 | D2 E/F/D/E/ C2 D/E/C/D/ | %42
 B,/C/A,/B,/ G,/A,/F,/G,/ E,D, C,2 | A,/B,/G,/A,/ F,/G,/E,/F,/ E,[C,F,-][C,F,][C,E,] | %44
 A,,/D,/C,/D,/ B,,/C,/A,,/B,,/ G,,/C,/B,,/C,/ A,,/B,,/G,,/A,,/ | %45
 F,,/F,,/G,,/A,,/ B,,/C,/B,,/A,,/ G,,/G,,/A,,/B,,/ C,/D,/C,/B,,/ | %46
 A,,/G,,/F,,/G,,/ A,,/B,,/A,,/B,,/ C,4 | B,A,G,F, z F,A,F, | z F,B,A, z/ G,/A,/B,/ C/D/C/B,/ | %49
 F,2 A,,2 B,,2 =B,,2 | C,/C,/D,/E,/ F,/G,/F,/E,/ D,/D,/E,/F,/ G,/A,/G,/F,/ | %51
 E,/E,/F,/G,/ A,/B,/A,/G,/ F,/F,/G,/A,/ B,/C/B,/A,/ | %52
 G,/E,/F,/G,/ A,/B,/A,/G,/ F,/D,/E,/F,/ G,/A,/G,/F,/ | E,/C,/D,/E,/ F,/D,/E,/F,/ E,F,-F,E, | %54
 [F,,F,]2 z [D,F,] [E,C]2 z [C,E,] | [D,A,]2 z [D,D] [E,C]2 z [E,G,] | %56
 [F,C]2 z/ F,/G,/A,/ B,/C/B,/A,/ G,/A,/G,/F,/ | E,/F,/E,/D,/ C/D/C/B,/ A,/B,/A,/G,/ F,/G,/F,/E,/ | %58
 D,/E,/D,/E,/ F,/G,/A,/B,/ [C,G,C]2 !fermata!z2 | z4 B,4 | A,4 z4 | [_A,B,]4 [G,B,]4 | z4 [F,G,]4 | %63
 [E,G,]4 z4 | z8 | z4 [_D,F,]4 | G,4 [F,A,]4 | z2 B,2- B,2 z2 | G,6 B,2 | [F,,F,A,]8 |] %70
V:3
 x8 | x8 | z4 z FFF | E/A/G/A/ F/G/E/F/ D/G/F/G/ E/F/D/E/ | C/C/D/E/ F/G/F/E/ D/D/E/F/ G/A/G/F/ | %5
 E/D/C/D/ E/F/D/E/ F3 F- | FE/D/ E/F/D/E/ F4- | F2 E2 F2 D2 | G2 E2 C2 F2 | Gc-cc B3 B | %10
 A/E/F/G/ A2 z/ A/G/A/ =B2 | z/ G/A/B/ c2 z/ A/B/c/ d2 | z/ B/c/d/ e2 z/ c/d/e/ A2 | G2 G2 F2 F2 | %14
 B2 z2 FE D2 | ED C2 D3 D | E3 z z FFF | E/A/G/A/ F/G/E/F/ D/G/F/G/ E/F/D/E/ | %18
 C/C/D/E/ F/G/F/E/ D/D/E/F/ G/A/G/F/ | E/E/F/G/ A/B/A/G/ F/F/G/A/ B/c/B/A/ | %20
 G2 A/G/A/F/ G2- G/B/A/G/ | F2 G2- G2 F2 | A2 F2 GF-FE | A4 G4 | %24
 D/C/B,/C/ D/E/D/E/ A/G/F/G/ A/B/A/B/ | F3 F [EG]/[DF]/[CE]/[DF]/ [EG]/[FA]/[DF]/[EG]/ | %26
 [FA]/d/c/d/ B/c/A/B/ G/c/B/c/ A/B/G/A/ | F/B/A/B/ G/A/F/G/ E/E/F/G/ A/B/A/G/ | %28
 F/F/G/A/ B/c/B/A/ G/F/E/F/ G/A/F/G/ | A2 G4 F2 | A2 F4 E2 | x8 | x8 | C/F/G/A/ G2 F2 D2 | %34
 E2 C2 D2 D2 | E2 z/ E/F/G/ FFFF | c3 c B3 B | A2 A2 c2 =B2 | c2 dG z E A2 | z D G2 z C A,2 | %40
 z F B2 c/d/B/c/ F/G/E/F/ | B/c/A/B/ G2 A/B/G/A/ F2 | F2 z2 G2 C/D/B,/C/ | z2 C2 C4 | x8 | x8 | %46
 [CF]4 CB,A,G, | x8 | x8 | x8 | E/E/F/G/ A/B/A/G/ z/ F/G/A/ B/c/B/A/ | %51
 z/ G/A/B/ c/d/c/B/ z/ A/B/c/ d/e/d/c/ | B/G/A/B/ c/d/c/B/ A/F/G/A/ B/c/B/A/ | %53
 G/E/F/G/ A/F/G/A/ GA G2 | x8 | x8 | x8 | x8 | x8 | z4 [CGc]4 | x8 | [FB]4 [_EGB_e]4 | z4 [DG]4 | %63
 x8 | [B,F]4 [DFB]4 | z4 F4- | F2 E2 F2 _E2 | F4 [CE]2 C2- | [CG]8 | x8 |] %70
V:4
 x8 | x8 | x8 | x8 | x8 | x8 | x8 | x8 | z4 z F,F,F, | %9
 E,/A,/G,/A,/ F,/G,/E,/F,/ D,/G,/F,/G,/ E,/F,/D,/E,/ | x8 | x8 | x8 | x8 | F,E,/D,/ E,>E, z4 | x8 | %16
 x8 | x8 | x8 | x8 | x8 | x8 | x8 | x8 | x8 | x8 | x8 | x8 | x8 | x8 | x8 | x8 | x8 | %33
 z2 C,2 F,,2 z2 | x8 | x8 | x8 | x8 | x8 | x8 | x8 | x8 | x8 | x8 | x8 | x8 | x8 | B,,4 A,,4 | %48
 B,,4 C,4 | A,2 B,2 F,2 D2 | x8 | x8 | x8 | z4 C,4 | x8 | x8 | x8 | x8 | x8 | x8 | x8 | x8 | x8 | %63
 x8 | [_E,F,]4 [D,F,B,]4 | x8 | C,2 B,,2 A,,4 | F,4 G,2 F,2 | [C,,C,]8 | x8 |] %70
V:5
 x8 | x8 | x8 | x8 | x8 | x8 | x8 | x8 | x8 | x8 | x8 | x6 z/ D/E/F/ | G2 z/ E/F/G/ A2 x2 | x8 | %14
 x8 | x8 | x8 | x8 | x8 | x8 | x8 | x8 | x8 | F3 F E/D/C/D/ E/F/E/F/ | x4 F4 | x8 | x8 | x8 | x8 | %29
 x8 | x8 | x8 | x8 | x8 | x8 | x8 | E/A/G/A/ F/G/E/F/ D/G/F/G/ E/F/D/E/ | %37
 C/C/D/E/ F/G/F/E/ D/D/E/F/ G/A/G/F/ | x8 | x8 | x8 | x8 | x8 | x8 | x8 | x8 | x8 | x8 | x8 | x8 | %50
 x8 | x8 | x8 | x8 | x8 | x8 | x8 | x8 | x8 | x8 | x8 | x8 | x8 | x8 | x8 | x8 | x8 | x8 | x8 | %69
 x8 |] %70
V:6
 x8 | x8 | x8 | x8 | x8 | x8 | x8 | x8 | x8 | x8 | x8 | x8 | x8 | x8 | x8 | x8 | x8 | x8 | x8 | %19
 x8 | x8 | x8 | x8 | x8 | x8 | x8 | x8 | x8 | x8 | x8 | x8 | x8 | x8 | x8 | x8 | x8 | x8 | x8 | %38
 x8 | x8 | x8 | x8 | x8 | x8 | x8 | x8 | x8 | x8 | x8 | x8 | x8 | x8 | x8 | x8 | x8 | x8 | x8 | %57
 x8 | x8 | x8 | x8 | x8 | x8 | x8 | x8 | x8 | x8 | B,,6 _A,,F,, | x8 | x8 |] %70

